X:1
T:Nova legge hà fatto
T:Simone Molinaro Genovese
T:Source : Canzonette a tre voci---Libro secondo---Venetia---R.Amadino---1600. Editor :  André Vierendeels (30/11/16).
T:Notes : Original clefs : C2, C3, C4
T:Nova legge hà fatto
T:©
T:©
C:Simone Molinaro Genovese
Z:©
%%score [ 1 [ 2 3 ] ]
L:1/8
Q:1/4=101
M:4/4
K:C
V:1 treble nm="Soprano" snm="S"
V:2 treble-8 nm="Tenor 1" snm="T 1"
V:3 treble-8 nm="Tenor 2" snm="T 2"
V:1
 z4 z2 EF | G2 A2 F2 G2 | A4 A4 | z2 AB c2 d2 | B2 B2 A4 |[M:2/4] A4 ::[M:4/4] z2 F2 E2 F2 | %7
w: No- va|leg- ge'hà fat- to'a-|mo- re,|che gli sia mai|sem- pre'ho- no-|re,|vuol che gli'a-|
w: Hà nel|cor suo sta- bi-|li- to,|a cias- cun far|si gra- di-|to,|ne vuol pie-|
w: Vuol che'o-|gn'hor le don- ne'a-|man- te,|non sian piu cru-|d'et in- gra-|te.|Non piu ri-|
w: Su, su,|dun- que'a- man- ti|ca- ri,|a gio- ir cias|cu- no'im- pa-|ri,|Fug- gan mar-|
 G2 GG F2 G2 | A4 A4 | z2 G3 F E2 | D4 E4 | z2 D2 E2 ^F2 | G4 G2 G2 | A2 F2 G2 E2 | F2 D2 EDEF | %15
w: man- ti, sia tut- ti|quan- ti,|col- mi di|gio- ia,|e dal suo|re- gno, scac-|cia- to'hà cru- del-|tà fu- ror _ _ _|
w: ta- to es- ser chia-|ma- to,|ne piu cru-|de- le,|ma sem- pre|pi- o, on-|de'ot- ten- ga'o- gni'a-|man- t'il suo _ _ _|
w: tro- se, non dis de-|gno- se,|non co- si'a-|va- re,|ma che'ad o-|gn'ho- ra, dien|mer- ce- de'a chi|lor ser- * * * *|
w: ti- ri, pian- ti'e so-|spi- ri,|fug- ga'o- gni|pe- na,|ch'ia- mar n'in|vi- ta, a|pro- var sem- pre|dol- c'e lie- * * *|
 G6 E2 | D4 E4 :| %17
w: _ e|sde- gno.|
w: _ de-|si- o.|
w: v'et a-|do- *|
w: * ta|vi- ta.|
V:2
 z4 z2 cd | e2 f2 d2 e2 | f4 f4 | z2 fg a2 a2 | a2 ^g2 a4 |[M:2/4] a4 ::[M:4/4] z2 d2 ^c2 d2 | %7
w: No- va|leg- ge'hà fat- to'a-|mo- re,|che gli sia mai|sem- pre'ho- no-|re,|vuol che gli'a-|
w: Hà nel|cor suo sta- bi-|li- to,|a cias- cun far|si gra- di-|to,|ne vuol pie-|
w: Vuol che'o-|gn'hor le don- ne'a-|man- te|non sian piu cru-|d'et in- gra-|te.|Non piu ri-|
w: Su, su,|dun- que'a- man- ti|ca- ri,|a gio- ir cias-|cu- no'im- pa-|ri,|Fug- gan mer-|
 e2 ed c2 d2 | f4 f2 c2- | cc e2 d2 c2- | c2 B2 c4 | z2 B2 c2 A2 | B4 B2 B2 | c2 A2 B2 G2 | %14
w: man- ti, sua tut- ti|quan- ti, col-|* mi di gio- *|* * ia,|e dal suo|re- gno, scac-|cia- to'hà cru- del-|
w: ta- to es- ser chia-|ma- to, ne|_ piu cru- de- *|* * le,|ma sem- pre|pi- o, on-|de'ot- ten- ga'o- gni'a-|
w: tro- se, non dis- de-|gno- se, non|_ co- si'a- va- *|* * re,|ma ch'ead o-|gn'ho- ra, dien|mer- ce- de'a chi|
w: ti- ri, pian- ti'e so-|spi- ri, fug-|* ga'o- gni pe- *|* * na,|ch'ia- mar n'in-|vi- ta, a|pro- var sem- pre|
 A2 A2 cBcd | e4 d2 c2- | c2 B2 c4 :| %17
w: tà fu- ror _ _ _|_ e sde-|* * gno.|
w: man- t'il suo _ _ _|_ de- si-|* * o.|
w: lor ser- v'et _ _ _|_ a- do-|* * ra.|
w: dol- c'e lie- * * *|* ta vi-|* * ta.|
V:3
 z2 AB c4- | c2 A2 _B2 G2 | F4 F2 de | f6 d2 | e2 e2 A4 |[M:2/4] A4 ::[M:4/4] z2 D2 A2 d2 | %7
w: No- va leg-|* ge'hà fat- to'a-|mo- re, che gli|sia mai|sem- pr'ho- *|re.|Vuol che gli'a-|
w: Hà nel cor|_ suo sta- bi-|li- to, a cias-|cun far-|si gra- di-|to.|Ne vuol spie-|
w: Vuol che'o- gn'hor|_ le don- ne'a-|man- te, non sian|piu cru-|d'et in gra-|te.|Non piu ri-|
w: Su, su, dun-|* que'a- man- ti|ca- ri, a gio-|ir cias-|cu- no'im- pa-|ri.|Fug- gan mar-|
 c2 cB A2 G2 | F4 F2 F2- | FF E2 G4- | G4 C4 | z2 G2 C2 D2 | G4 G2 G2 | F4 E4 | D2 D2 C2 C2 | %15
w: man- ti, sua tut- ti|quan- ti, col-|* mi di gio-|* ia,|e dal suo|re- gno, scac-|cia- to'hà|cru- del- tà fu-|
w: ta- to es- ser chia-|ma- to, ne|_ piu cru- de-|* le,|ma sem- pre|pi- o, on-|de'ot- ten-|ga'o- gni'a- man- t'il|
w: tro- se, non dis- de-|gno- se, non|_ co- si'a- va-|* re,|ma che'ad o-|gn'ho- ra, dien|mer- ce|de'a chi lor ser-|
w: ti- ri, pian- ti'e so-|spi- ri, fug-|* ga'o- gni pe-|* na,|ch'ia- mar n'in-|vi- ta, a|pro- var|sem- pre dol- c'e|
 CDEF G2 G2 | G4 C4 :| %17
w: ro- * * * * re|sde- gno.|
w: suo _ _ _ _ de-|si- o.|
w: v'et _ _ _ _ a-|do- ra.|
w: lie- * * * * ta|vi- ta.|

